X:1
T:Blessèd City, 87.87.87
T:Blessèd City, 87.87.87
T:Frank Sewall (1837-1915)
T:Public Domain Courtesy of the Cyber Hymnal™
C:Frank Sewall (1837-1915)
Z:Public Domain
Z:Courtesy of the Cyber Hymnal™
%%score ( 1 2 ) ( 3 4 )
L:1/8
Q:1/4=108
M:4/4
K:A
V:1 treble 
V:2 treble 
V:3 bass 
V:4 bass 
V:1
 [EA]2 [FA]2 [EA]2 [CA]2 | [EB]2 [Ec]2 [EB]2 [CA]2 | [Ac]2 [Bc]2 [Ac]2 [Gc]2 | [Fc]2 BF A2 G2 | %4
 [EA]2 [FA]2 [EA]2 [CA]2 | [EB]2 [Ec]2 [GB]2 A2 | [Dd]2 [Ed]2 dc BA | [EA]2 [EG]2 [EA]4 | %8
 [DF]2 [B,G]2 [DA]2 [CA]2 | [CA]2 [FB]2 [Fc]2 [^Ec]2 | [Fd]2 [EB]2 [Ee]2 cA | [EA]2 [EB]2 [EA]4 |] %12
V:2
 x8 | x8 | x8 | x2 F2 E4 | x8 | x6 A2 | x4 E2 F2 | x8 | x8 | x8 | x6 ^D2 | x8 |] %12
V:3
 [A,,C]2 [D,A,]2 [C,A,]2 [F,A,]2 | [E,G,]2 [C,A,]2 [E,G,]2 [A,,A,]2 | [A,C]2 [G,C]2 [F,C]2 [E,C]2 | %3
 [D,A,]2 [^D,B,]2 C2 B,2 | [A,,C]2 [D,A,]2 [C,A,]2 [F,A,]2 | [E,G,]2 [C,A,]2 [E,D]2 [A,C]2 | %6
 [F,A,]2 [G,B,]2 A,2 [D,D]2 | [E,C]2 [E,B,]2 [A,,C]4 | [D,F,]2 [D,=F,]2 F,E, [A,,E,]2 | %9
 [F,A,]2 [D,F,]2 [C,G,]2 [C,G,]2 | [B,,B,]2 [E,G,]2 [C,A,]2 A,B, | [E,C]2 [E,D]2 [A,,C]4 |] %12
V:4
 x8 | x8 | x8 | x4 E,4 | x8 | x8 | x4 A,2 x2 | x8 | x4 A,,2 x2 | x8 | x6 F,2 | x8 |] %12

